packages/core/src/svgs/cone.svg

<svg width="24" height="24" viewBox="0 0 24 24" fill="none" xmlns="http://www.w3.org/2000/svg">
<g clip-path="url(#clip0_31_8578)">
<path d="M0 0H24V24H0V0Z" fill="url(#paint0_linear_31_8578)"/>
<path d="M4.47002 7.90265C4.88145 7.69693 5.32717 7.81693 5.49859 7.90265C5.67002 7.55551 6.16288 6.85693 6.78002 6.85693C7.39288 6.85693 7.38002 7.37979 7.29431 7.64122L7.55145 7.38408H8.57145L9.34288 8.16836L9.60002 7.90265H10.6243L10.8815 8.69122C10.9672 8.51979 11.2415 8.16836 11.6529 8.16836C12.06 8.16836 12.3343 8.33979 12.42 8.4255C12.5057 8.33979 12.78 8.16836 13.1915 8.16836C13.5986 8.16836 14.0443 8.86693 14.2157 9.21408C14.3872 8.77693 14.88 7.90265 15.4972 7.90265C16.11 7.90265 16.6072 8.60122 16.7786 8.95265C16.95 8.69122 17.3915 8.16836 17.8072 8.16836C18.2143 8.16836 18.4886 8.69122 18.5743 8.95265C18.6437 8.80396 18.7521 8.67684 18.8879 8.58478C19.0237 8.49272 19.1819 8.43916 19.3457 8.42979C20.16 8.42979 20.1943 9.47551 20.1129 9.99836C19.7015 12.7241 18.57 13.4055 18.0557 13.4055C17.9743 14.1898 17.8029 15.8698 17.8029 16.2855C17.8029 16.8126 17.5457 17.3355 16.2643 17.0741C14.9829 16.8126 8.06145 16.5469 6.78002 16.8126C5.75145 17.0226 5.49431 16.5512 5.49431 16.2855L4.98002 12.3598C4.89431 12.3598 4.62431 12.3041 4.21288 12.0941C3.80574 11.8884 4.21288 11.3098 4.47002 11.0484C4.38431 10.4355 4.16145 9.16265 3.95574 8.95265C3.69859 8.69122 3.95574 8.16836 4.47002 7.90265Z" fill="#3A1704"/>
<path d="M11.2071 8.31442C11.0704 8.41279 10.9588 8.542 10.8814 8.69157L10.6242 7.903H9.59566L9.33851 8.16871L8.57137 7.38014H7.54709L7.28994 7.64157C7.3328 7.50443 7.3628 7.29442 7.28994 7.12728L7.25566 7.06728C7.17423 6.94728 7.02851 6.85728 6.77994 6.85728C6.1928 6.85728 5.71709 7.48728 5.52423 7.85157L5.49423 7.903L5.47709 7.89443C5.31854 7.82307 5.14643 7.78689 4.97258 7.78837C4.79872 7.78985 4.62725 7.82895 4.46994 7.903C3.95566 8.16871 3.69851 8.69157 3.95566 8.953C4.16137 9.163 4.38423 10.4359 4.46994 11.0487C4.2128 11.3101 3.80566 11.8887 4.2128 12.0944C4.62423 12.3087 4.89851 12.3601 4.98423 12.3601L5.49851 16.2859C5.49851 16.5516 5.75566 17.023 6.77994 16.813C8.06137 16.5516 14.9828 16.813 16.2642 17.0701C17.5499 17.3359 17.8071 16.813 17.8071 16.2859C17.8071 15.8701 17.9742 14.1901 18.0599 13.4059C18.5742 13.4059 19.7014 12.7244 20.1128 9.99871C20.1985 9.47585 20.1642 8.43014 19.3414 8.43014C19.1783 8.43728 19.0207 8.4908 18.8871 8.58443C18.7525 8.678 18.6447 8.80504 18.5742 8.953C18.5206 8.79552 18.444 8.64678 18.3471 8.51157C18.2099 8.323 18.0299 8.16871 17.8028 8.16871C17.5457 8.16871 17.2757 8.37443 17.0699 8.58871C16.9414 8.71728 16.8428 8.85442 16.7785 8.953C16.7081 8.8141 16.6249 8.68209 16.5299 8.55871C16.2899 8.23728 15.9214 7.903 15.4971 7.903C15.0642 7.903 14.6871 8.33585 14.4471 8.74728C14.3442 8.91871 14.2628 9.08585 14.2157 9.21871C14.1371 9.06078 14.0468 8.90893 13.9457 8.76443C13.7357 8.46443 13.4528 8.16442 13.1871 8.16442C12.9062 8.15639 12.632 8.25084 12.4157 8.43014C12.4157 8.42585 12.4157 8.42157 12.4071 8.41728C12.1917 8.24707 11.9229 8.15897 11.6485 8.16871C11.4771 8.16871 11.3271 8.22871 11.2071 8.31442ZM11.0699 7.89443C11.2285 7.80443 11.4257 7.74014 11.6485 7.74014C11.9155 7.73642 12.1797 7.79513 12.4199 7.91157C12.6602 7.79513 12.9244 7.73642 13.1914 7.74014C13.4099 7.74014 13.6028 7.83014 13.7399 7.92871C13.9087 8.04921 14.0576 8.19524 14.1814 8.36157L14.3528 8.12585C14.5971 7.82585 14.9871 7.47443 15.4971 7.47443C15.9685 7.47443 16.3457 7.74014 16.6028 7.98871C16.6799 8.07014 16.7528 8.15157 16.8171 8.233L16.9157 8.143C17.1171 7.963 17.4299 7.74014 17.8028 7.74014C17.9732 7.7477 18.1395 7.79505 18.2883 7.8784C18.4372 7.96175 18.5644 8.07879 18.6599 8.22014C18.9128 8.053 19.1742 8.00157 19.3457 8.00157C19.6457 8.00157 19.9071 8.10014 20.1085 8.28443C20.3014 8.45585 20.4085 8.683 20.4771 8.893C20.6057 9.30443 20.5842 9.76728 20.5328 10.0673C20.3185 11.4773 19.9157 12.403 19.4614 12.9901C19.2077 13.3407 18.8579 13.6101 18.4542 13.7659C18.3599 14.623 18.2314 15.943 18.2314 16.2859C18.2314 16.603 18.1542 17.0401 17.7685 17.323C17.3957 17.593 16.8599 17.6316 16.1828 17.4944C15.8914 17.4344 15.2485 17.3701 14.3914 17.3144C12.4725 17.189 10.55 17.129 8.62709 17.1344C7.76994 17.143 7.13566 17.1773 6.86566 17.233C6.29137 17.3487 5.84137 17.293 5.51994 17.0873C5.38887 17.0049 5.27954 16.8922 5.20122 16.7587C5.12289 16.6252 5.07787 16.4747 5.06994 16.3201L4.59851 12.7201C4.43566 12.6687 4.23851 12.5916 4.01994 12.4759C3.80566 12.3687 3.66423 12.1844 3.62137 11.953C3.58709 11.7516 3.63851 11.5673 3.69423 11.4301C3.77566 11.2373 3.89994 11.0573 4.01566 10.9159C3.9728 10.6287 3.9128 10.2687 3.84423 9.943C3.79231 9.71068 3.72648 9.4817 3.64709 9.25728C3.64303 9.25 3.63874 9.24286 3.63423 9.23585C3.34709 8.923 3.40709 8.51585 3.53994 8.24157C3.68137 7.95014 3.94709 7.693 4.27709 7.52157C4.59433 7.36469 4.9552 7.3194 5.30137 7.393C5.39994 7.24728 5.52423 7.08871 5.66994 6.943C5.92709 6.69443 6.30851 6.42871 6.77994 6.42871C6.99423 6.42871 7.19137 6.47157 7.35851 6.583C7.5128 6.68157 7.61566 6.81442 7.67994 6.95157H8.75137L9.3428 7.55157L9.41994 7.47443H10.9371L11.0699 7.89443Z" fill="#F0F3FA"/>
<path fill-rule="evenodd" clip-rule="evenodd" d="M17.7428 13.3844L17.4942 15.6986C17.4942 16.0415 17.3914 16.7272 16.9842 16.7272C16.8214 16.7272 16.4785 16.6758 16.0071 16.6072C14.6517 16.3746 13.2807 16.2442 11.9057 16.2172C10.8685 16.2172 9.61711 16.3201 8.53711 16.4144C7.25139 16.5258 6.20568 16.6115 6.06853 16.4744C5.90996 16.3158 5.84996 15.9601 5.76853 15.4672C5.71711 15.1629 5.65711 14.8072 5.55853 14.4129C5.35711 13.5901 5.30139 13.0415 5.30139 12.8701C5.55853 12.8701 6.11568 12.7629 6.32139 12.3558C6.49282 12.6129 6.92996 13.0715 7.33711 12.8701C7.74425 12.6601 8.01425 12.0986 8.09996 11.8372C8.27139 12.0944 8.65711 12.6086 8.85853 12.6086C9.11568 12.6086 10.1314 12.6086 10.3842 12.3515C10.5857 12.1458 10.8085 11.7515 10.89 11.5801H11.1471C11.2328 11.8372 11.4985 12.3515 11.9057 12.3515C12.3128 12.3515 12.5828 11.8372 12.6685 11.5801C12.7542 11.8372 13.0242 12.3515 13.4314 12.3515C13.8385 12.3515 14.1085 11.8372 14.19 11.5801C14.2757 11.8372 14.5971 12.3515 15.2057 12.3515C15.6787 12.342 16.1317 12.159 16.4785 11.8372V12.0944C16.4785 12.4372 16.62 12.9386 16.9842 13.1229C17.4942 13.3801 17.7471 13.3801 17.7471 13.3801L17.7428 13.3844ZM10.7142 14.5715C10.8514 14.5715 11.1428 14.4986 11.1428 14.1429C11.1428 13.7872 10.8514 13.7144 10.7142 13.7144C10.5771 13.7144 10.2857 13.7872 10.2857 14.1429C10.2857 14.4986 10.5771 14.5715 10.7142 14.5715ZM10.7142 15.4286C11.3442 15.4286 11.8157 14.8115 11.8157 14.1129C11.8157 13.4186 11.3442 12.8572 10.7142 12.8572C10.0842 12.8572 9.53996 13.4186 9.53996 14.1129C9.53996 14.8115 10.0842 15.4286 10.7142 15.4286ZM13.2857 14.5715C13.4228 14.5715 13.7142 14.4686 13.7142 14.1129C13.7142 13.7615 13.4228 13.7144 13.2857 13.7144C13.1485 13.7144 12.8571 13.7872 12.8571 14.1429C12.8571 14.4986 13.1485 14.5715 13.2857 14.5715ZM13.2857 15.4286C13.9157 15.4286 14.3571 14.8372 14.3571 14.1429C14.3571 13.4486 13.9157 12.8572 13.2857 12.8572C12.6557 12.8572 12.2142 13.4486 12.2142 14.1429C12.2142 14.8372 12.6557 15.4286 13.2857 15.4286ZM16.2214 14.4944C16.1785 14.8458 15.7757 14.8029 15.6385 14.7858C15.5785 14.7772 15.5828 14.7729 15.6257 14.4172C15.6471 14.2586 15.6771 14.0058 15.7328 14.0358C15.87 14.0529 16.2642 14.1429 16.2214 14.4944ZM17.13 14.6058C17.0442 15.2958 16.47 15.7929 15.8442 15.7158L14.9657 15.6044C14.9 15.5958 14.8404 15.5618 14.7995 15.5097C14.7586 15.4576 14.7398 15.3916 14.7471 15.3258L14.8028 14.8672L14.8714 14.3272L15 13.3286C15.0085 13.2622 15.0431 13.2018 15.0961 13.1608C15.1492 13.1198 15.2163 13.1016 15.2828 13.1101L16.1614 13.2172C16.7828 13.2944 17.22 13.9201 17.13 14.6058ZM6.68568 13.1358L6.05996 13.3415C6.04342 13.3477 6.02919 13.3588 6.01921 13.3734C6.00924 13.388 6.00402 13.4053 6.00425 13.4229C6.02568 14.1944 6.47568 15.2872 6.73282 15.8101C6.7419 15.8274 6.75662 15.8411 6.77455 15.8489C6.79248 15.8567 6.81254 15.8581 6.83139 15.8529L7.50425 15.6301C7.51568 15.6252 7.52592 15.6179 7.53425 15.6086L7.73139 15.4158C7.74396 15.403 7.76023 15.3944 7.77792 15.3913C7.7956 15.3883 7.81381 15.3908 7.82996 15.3986L8.24996 15.6086C8.26711 15.6172 8.29282 15.6215 8.31425 15.6129L8.97425 15.3944C8.99227 15.3878 9.00756 15.3753 9.01766 15.359C9.02776 15.3427 9.03209 15.3234 9.02996 15.3044L8.79425 13.1829C8.79115 13.1625 8.78077 13.1439 8.76502 13.1305C8.74926 13.1171 8.72921 13.1098 8.70853 13.1101H8.11282C8.09009 13.1101 8.06829 13.1191 8.05221 13.1352C8.03614 13.1513 8.02711 13.1731 8.02711 13.1958V13.9758C8.02721 13.9905 8.02354 14.0049 8.01644 14.0178C8.00935 14.0307 7.99907 14.0415 7.9866 14.0492C7.97412 14.057 7.95986 14.0614 7.94519 14.062C7.93052 14.0627 7.91593 14.0595 7.90282 14.0529L7.59853 13.9029C7.58842 13.8978 7.57738 13.8947 7.56607 13.8939C7.55475 13.893 7.54338 13.8945 7.53262 13.898C7.52185 13.9016 7.51191 13.9073 7.50336 13.9148C7.49481 13.9222 7.48783 13.9313 7.48282 13.9415L7.35425 14.1986C7.34698 14.2141 7.33529 14.227 7.32065 14.2357C7.30601 14.2445 7.2891 14.2486 7.27208 14.2477C7.25506 14.2468 7.23869 14.2408 7.22509 14.2306C7.21148 14.2203 7.20124 14.2062 7.19568 14.1901L6.79282 13.1829C6.78426 13.163 6.76844 13.147 6.74855 13.1382C6.72866 13.1295 6.70619 13.1286 6.68568 13.1358Z" fill="url(#paint1_linear_31_8578)"/>
<path fill-rule="evenodd" clip-rule="evenodd" d="M4.80005 8.14279C4.39291 8.14279 4.28577 8.57136 4.28577 8.74279C4.49148 9.1585 4.71434 10.4614 4.80005 11.0656C4.54291 11.3228 4.54291 11.5799 4.54291 11.8371C4.54291 12.0428 4.88577 12.0942 5.05291 12.0942C5.30577 12.6085 5.55862 12.6085 5.81148 12.6085C6.0172 12.6085 5.8972 11.9228 5.81148 11.5799L6.32148 11.3228C6.57862 12.3514 7.08434 12.6085 7.3372 12.6085C7.53862 12.6085 7.59434 12.0942 7.59434 11.8371C7.59434 11.6656 7.53862 11.3228 7.3372 11.3228C7.08005 11.3228 6.8272 10.8085 6.8272 10.5514C6.8272 10.3414 6.99862 9.77993 7.08434 9.52279C6.90005 9.33422 6.98148 8.87993 7.04148 8.54564C7.06291 8.41707 7.08434 8.30564 7.08434 8.23279C7.08434 7.97564 6.89577 7.28564 6.64291 7.28564C6.38577 7.28564 6.06862 7.45707 5.81148 7.97136C5.61005 8.38707 6.06862 9.68993 6.32148 10.2899L5.81148 10.5471C5.72577 9.94707 5.55862 8.69564 5.55862 8.48993C5.55862 8.23279 5.30148 8.14279 4.79577 8.14279H4.80005ZM7.84291 9.85707H7.3372L7.08005 10.2899L7.3372 10.7142H7.84291L8.10005 10.2899L7.84291 9.85707ZM7.71434 7.71422H8.57148L9.00005 8.57136L8.57148 9.4285H7.71434L7.28577 8.57136L7.71434 7.71422ZM9.64291 8.14279L9.21434 8.78564L9.64291 9.4285H10.2858L10.7143 8.78564L10.2858 8.14279H9.64291ZM10.5001 9.85707L10.8901 9.4285H11.4001L11.7858 9.85707L11.4001 10.2899H10.8858L10.5001 9.85707ZM8.57148 9.85707L7.92862 11.1428L8.57148 11.9999H9.8572L10.5001 11.1428L9.8572 9.85707H8.57148ZM11.1429 8.74279C11.3143 8.48564 11.7558 8.12993 12.1586 8.74279V9.26136C12.2443 9.00422 12.4501 8.57136 12.8572 8.57136C13.3629 8.57136 13.7143 8.74279 13.7143 9.77564V11.3185C13.7143 11.4899 13.7015 11.9999 13.5001 11.9999C13.0715 11.9999 12.8572 11.4428 12.8572 10.9285V10.6542C12.8701 10.1528 12.8829 9.56136 12.6686 9.77564C12.5701 9.8785 12.5101 10.2428 12.4415 10.6456C12.3386 11.2714 12.2143 11.9999 11.9058 11.9999C11.4986 11.9999 11.4001 11.1514 11.4001 10.8085C11.6529 10.6371 12.1586 10.2385 12.1586 10.0371C12.1586 9.77993 11.4001 8.74707 11.1429 8.74707V8.74279ZM15.4286 11.9999C14.4129 11.9999 14.1429 10.7228 14.1429 10.0328C14.1429 9.40707 14.7001 8.14279 15.4629 8.14279C16.0715 8.14279 16.3929 8.91422 16.4786 9.26136V10.0328C16.4786 10.2385 16.3072 10.4614 16.2215 10.5471C16.4786 10.8042 16.6972 11.9999 15.4286 11.9999ZM17.7429 8.48564C17.9143 8.57136 18.2572 8.7985 18.2572 8.99993C18.2572 9.0985 18.1501 9.29993 18.0301 9.52707C17.8286 9.91707 17.5886 10.3842 17.7472 10.5471C17.8543 10.6542 18.0043 10.3628 18.1929 9.98564C18.4672 9.44993 18.8229 8.74279 19.2686 8.74279C20.0315 8.74279 19.7786 10.2899 19.5258 11.0656C19.2686 11.8371 18.7629 13.1228 17.7472 13.1228C16.7315 13.1228 16.4786 12.3514 16.7315 12.0942C16.8901 11.9314 17.1515 12.0771 17.3829 12.2056C17.5243 12.2828 17.6529 12.3514 17.7472 12.3514C18.0043 12.3514 18.2529 11.8371 18.2529 11.3228C18.0815 11.5799 17.6443 12.0428 17.2372 11.8371C16.7315 11.5799 16.4786 8.74707 17.7472 8.48993L17.7429 8.48564ZM15.4672 8.99993C15.2615 8.99993 15.2101 9.43279 15.2101 9.5185H15.7201C15.7201 9.43279 15.6686 9.00422 15.4629 9.00422L15.4672 8.99993ZM15.4672 11.0656C15.2615 11.0656 15.2101 10.7228 15.2101 10.5514H15.7201C15.7201 10.7228 15.6686 11.0656 15.4629 11.0656H15.4672Z" fill="url(#paint2_linear_31_8578)"/>
</g>
<defs>
<linearGradient id="paint0_linear_31_8578" x1="6.64286" y1="1.71429" x2="12" y2="23.3571" gradientUnits="userSpaceOnUse">
<stop stop-color="#09C0FD"/>
<stop offset="0.39" stop-color="#E0ECFA"/>
<stop offset="0.75" stop-color="#C1DD66"/>
<stop offset="1" stop-color="#209060"/>
</linearGradient>
<linearGradient id="paint1_linear_31_8578" x1="11.5242" y1="11.5801" x2="11.3957" y2="16.2172" gradientUnits="userSpaceOnUse">
<stop offset="0.04" stop-color="#CD7B41"/>
<stop offset="0.26" stop-color="#DB995D"/>
<stop offset="0.36" stop-color="#C0733A"/>
<stop offset="0.6" stop-color="#D29957"/>
<stop offset="0.88" stop-color="#CE8447"/>
<stop offset="1" stop-color="#DC9555"/>
</linearGradient>
<linearGradient id="paint2_linear_31_8578" x1="4.29005" y1="9.31707" x2="19.7786" y2="10.3328" gradientUnits="userSpaceOnUse">
<stop stop-color="#FEA90F"/>
<stop offset="0.08" stop-color="#FFB917"/>
<stop offset="0.2" stop-color="#EE7B07"/>
<stop offset="0.34" stop-color="#F9F085"/>
<stop offset="0.45" stop-color="#F2A700"/>
<stop offset="0.58" stop-color="#FAA401"/>
<stop offset="0.69" stop-color="#FDB719"/>
<stop offset="0.83" stop-color="#FBA101"/>
<stop offset="0.92" stop-color="#EC9E00"/>
<stop offset="1" stop-color="#EE9D03"/>
</linearGradient>
<clipPath id="clip0_31_8578">
<rect width="24" height="24" fill="white"/>
</clipPath>
</defs>
</svg>

<svg xmlns="http://www.w3.org/2000/svg" width="24" height="24" fill="none" viewBox="0 0 24 24"><g clip-path="url(#a)"><path fill="url(#b)" d="M0 0h24v24H0z"/><path fill="#3A1704" d="M4.47 7.903c.411-.206.857-.086 1.029 0 .171-.347.664-1.046 1.281-1.046.613 0 .6.523.514.784l.257-.257h1.02l.772.784.257-.265h1.024l.258.788c.085-.171.36-.523.77-.523.408 0 .682.172.768.258.086-.086.36-.258.771-.258.408 0 .853.699 1.025 1.046.171-.437.664-1.311 1.281-1.311.613 0 1.11.698 1.282 1.05.171-.262.613-.785 1.028-.785.407 0 .682.523.767.785a.91.91 0 0 1 .772-.523c.814 0 .848 1.046.767 1.568-.412 2.726-1.543 3.408-2.057 3.408-.082.784-.253 2.464-.253 2.88 0 .527-.257 1.05-1.539.788-1.281-.261-8.203-.527-9.484-.261-1.029.21-1.286-.262-1.286-.527L4.98 12.36c-.086 0-.356-.056-.767-.266-.407-.206 0-.784.257-1.046-.086-.613-.309-1.885-.514-2.095-.257-.262 0-.785.514-1.05"/><path fill="#F0F3FA" d="M11.207 8.314a1.1 1.1 0 0 0-.326.378l-.257-.789H9.596l-.257.266-.768-.789H7.547l-.257.262c.043-.138.073-.348 0-.515l-.034-.06c-.082-.12-.227-.21-.476-.21-.587 0-1.063.63-1.256.995l-.03.051-.017-.009a1.2 1.2 0 0 0-1.007.009c-.514.266-.771.789-.514 1.05.205.21.428 1.483.514 2.096-.257.261-.664.84-.257 1.045.411.215.686.266.771.266l.515 3.926c0 .266.257.737 1.28.527 1.282-.261 8.204 0 9.485.257 1.286.266 1.543-.257 1.543-.784 0-.416.167-2.096.253-2.88.514 0 1.641-.682 2.053-3.407.085-.523.051-1.569-.772-1.569a.86.86 0 0 0-.454.154.94.94 0 0 0-.313.369 1.7 1.7 0 0 0-.227-.441c-.137-.189-.317-.343-.544-.343-.257 0-.527.205-.733.42a2.3 2.3 0 0 0-.291.364 2.5 2.5 0 0 0-.25-.394c-.24-.322-.608-.656-1.032-.656-.433 0-.81.433-1.05.844a3 3 0 0 0-.231.472 3.6 3.6 0 0 0-.27-.455c-.21-.3-.493-.6-.759-.6a1.16 1.16 0 0 0-.771.266c0-.004 0-.008-.009-.013a1.16 1.16 0 0 0-.758-.248.76.76 0 0 0-.442.145m-.137-.42c.159-.09.356-.154.579-.154.267-.004.53.055.77.172.241-.117.505-.176.772-.172.219 0 .412.09.549.189q.255.181.441.433l.172-.236c.244-.3.634-.652 1.144-.652.472 0 .849.266 1.106.515q.117.122.214.244l.099-.09c.201-.18.514-.403.887-.403a1.1 1.1 0 0 1 .857.48c.253-.167.514-.218.686-.218.3 0 .561.098.762.282.193.172.3.399.37.609.128.411.106.874.055 1.174-.215 1.41-.617 2.336-1.072 2.923-.253.35-.603.62-1.007.776-.094.857-.223 2.177-.223 2.52 0 .317-.077.754-.463 1.037-.372.27-.908.309-1.585.171-.292-.06-.934-.124-1.792-.18a85 85 0 0 0-5.764-.18c-.857.009-1.491.043-1.761.099-.575.116-1.025.06-1.346-.146a.97.97 0 0 1-.45-.767l-.471-3.6a3.5 3.5 0 0 1-.58-.244.72.72 0 0 1-.398-.523.96.96 0 0 1 .073-.523c.082-.193.206-.373.322-.514a17 17 0 0 0-.172-.973 6 6 0 0 0-.197-.686l-.013-.021c-.287-.313-.227-.72-.094-.994.141-.292.407-.549.737-.72a1.57 1.57 0 0 1 1.024-.129c.099-.146.223-.304.369-.45.257-.249.639-.514 1.11-.514.214 0 .411.043.579.154a.87.87 0 0 1 .32.369h1.072l.592.6.077-.078h1.517z"/><path fill="url(#c)" fill-rule="evenodd" d="m17.743 13.384-.249 2.315c0 .342-.103 1.028-.51 1.028-.163 0-.506-.051-.977-.12a27.4 27.4 0 0 0-4.101-.39c-1.038 0-2.289.103-3.369.197-1.286.112-2.331.197-2.468.06-.159-.158-.219-.514-.3-1.007-.052-.304-.112-.66-.21-1.054-.202-.823-.258-1.372-.258-1.543.258 0 .815-.107 1.02-.514.172.257.609.716 1.016.514.407-.21.677-.771.763-1.033.171.257.557.772.759.772.257 0 1.272 0 1.525-.258.202-.205.425-.6.506-.77h.257c.086.256.351.77.759.77.407 0 .677-.514.762-.77.086.256.356.77.763.77s.678-.514.759-.77c.086.256.407.77 1.016.77.473-.009.926-.192 1.273-.514v.257c0 .343.141.845.505 1.029.51.257.763.257.763.257zm-7.029 1.188c.137 0 .429-.073.429-.43 0-.355-.292-.428-.429-.428s-.428.073-.428.429.291.428.428.428m0 .857c.63 0 1.102-.617 1.102-1.316 0-.694-.472-1.256-1.102-1.256s-1.174.562-1.174 1.256c0 .699.544 1.316 1.174 1.316m2.572-.857a.436.436 0 0 0 .428-.46c0-.35-.291-.398-.428-.398s-.429.073-.429.429.292.428.429.428m0 .857c.63 0 1.071-.592 1.071-1.286s-.441-1.286-1.071-1.286-1.072.592-1.072 1.286.442 1.286 1.072 1.286m2.935-.935c-.043.352-.445.309-.582.292-.06-.009-.056-.013-.013-.369.021-.158.051-.411.107-.381.137.017.531.107.488.458m.909.112c-.086.69-.66 1.187-1.286 1.11l-.878-.112a.253.253 0 0 1-.219-.278l.056-.459.068-.54.129-.998a.253.253 0 0 1 .283-.219l.878.107c.622.077 1.059.703.969 1.389m-10.444-1.47-.626.206a.09.09 0 0 0-.056.08c.022.772.472 1.865.729 2.388a.086.086 0 0 0 .098.043l.673-.223a.1.1 0 0 0 .03-.021l.197-.193a.09.09 0 0 1 .099-.017l.42.21a.08.08 0 0 0 .064.004l.66-.219a.086.086 0 0 0 .056-.09l-.236-2.121a.086.086 0 0 0-.085-.073h-.596a.086.086 0 0 0-.086.086v.78a.086.086 0 0 1-.124.077l-.304-.15a.086.086 0 0 0-.116.038l-.129.258a.09.09 0 0 1-.082.049.09.09 0 0 1-.076-.058l-.403-1.007a.086.086 0 0 0-.107-.047" clip-rule="evenodd"/><path fill="url(#d)" fill-rule="evenodd" d="M4.8 8.143c-.407 0-.514.428-.514.6.205.415.428 1.718.514 2.323-.257.257-.257.514-.257.771 0 .206.343.257.51.257.253.515.506.515.758.515.206 0 .086-.686 0-1.03l.51-.256c.258 1.028.763 1.285 1.016 1.285.202 0 .257-.514.257-.77 0-.172-.055-.515-.257-.515-.257 0-.51-.514-.51-.772 0-.21.172-.771.257-1.028-.184-.189-.103-.643-.043-.977.022-.129.043-.24.043-.313 0-.257-.188-.947-.441-.947-.257 0-.574.171-.832.685-.2.416.258 1.719.51 2.319l-.51.257c-.085-.6-.252-1.851-.252-2.057 0-.257-.258-.347-.763-.347zm3.043 1.714h-.506l-.257.433.257.424h.506l.257-.424zm-.129-2.143h.857l.43.857-.43.857h-.857l-.428-.857zm1.929.429-.429.643.429.643h.643l.428-.643-.428-.643zm.857 1.714.39-.428h.51l.386.428-.386.433h-.514zm-1.929 0-.642 1.286.642.857h1.286l.643-.857-.643-1.286zm2.572-1.114c.171-.257.613-.613 1.016 0v.518c.085-.257.291-.69.698-.69.506 0 .857.172.857 1.205v1.543c0 .17-.013.68-.214.68-.428 0-.643-.556-.643-1.07v-.275c.013-.501.026-1.093-.188-.878-.099.103-.159.467-.228.87-.102.625-.227 1.354-.535 1.354-.407 0-.506-.849-.506-1.191.253-.172.759-.57.759-.772 0-.257-.759-1.29-1.016-1.29zM15.429 12c-1.016 0-1.286-1.277-1.286-1.967 0-.626.557-1.89 1.32-1.89.609 0 .93.771 1.016 1.118v.772c0 .206-.172.428-.258.514.258.257.476 1.453-.792 1.453m2.314-3.514c.171.085.514.313.514.514 0 .098-.107.3-.227.527-.201.39-.441.857-.283 1.02.107.107.257-.184.446-.561.274-.536.63-1.243 1.076-1.243.763 0 .51 1.547.257 2.323-.257.771-.763 2.057-1.779 2.057-1.015 0-1.268-.772-1.015-1.029.158-.163.42-.017.65.112.142.077.27.145.365.145.257 0 .506-.514.506-1.028-.172.257-.609.72-1.016.514-.505-.257-.758-3.09.51-3.347zM15.467 9c-.206 0-.257.433-.257.518h.51c0-.085-.051-.514-.257-.514zm0 2.066c-.206 0-.257-.343-.257-.515h.51c0 .172-.051.515-.257.515z" clip-rule="evenodd"/></g><defs><linearGradient id="b" x1="6.643" x2="12" y1="1.714" y2="23.357" gradientUnits="userSpaceOnUse"><stop stop-color="#09C0FD"/><stop offset=".39" stop-color="#E0ECFA"/><stop offset=".75" stop-color="#C1DD66"/><stop offset="1" stop-color="#209060"/></linearGradient><linearGradient id="c" x1="11.524" x2="11.396" y1="11.58" y2="16.217" gradientUnits="userSpaceOnUse"><stop offset=".04" stop-color="#CD7B41"/><stop offset=".26" stop-color="#DB995D"/><stop offset=".36" stop-color="#C0733A"/><stop offset=".6" stop-color="#D29957"/><stop offset=".88" stop-color="#CE8447"/><stop offset="1" stop-color="#DC9555"/></linearGradient><linearGradient id="d" x1="4.29" x2="19.779" y1="9.317" y2="10.333" gradientUnits="userSpaceOnUse"><stop stop-color="#FEA90F"/><stop offset=".08" stop-color="#FFB917"/><stop offset=".2" stop-color="#EE7B07"/><stop offset=".34" stop-color="#F9F085"/><stop offset=".45" stop-color="#F2A700"/><stop offset=".58" stop-color="#FAA401"/><stop offset=".69" stop-color="#FDB719"/><stop offset=".83" stop-color="#FBA101"/><stop offset=".92" stop-color="#EC9E00"/><stop offset="1" stop-color="#EE9D03"/></linearGradient><clipPath id="a"><path fill="#fff" d="M0 0h24v24H0z"/></clipPath></defs></svg>
